X: 38959
T: Swaggering Jig, The
R: slip jig
M: 9/8
K: Eminor
c|BAG EGG EGG|BAG EFG A2c|BAG EGG EGG|BAG EFE D2:|
|:c|Bdd ded dBG|cee efe e2f|gfe dcB AGA|AGA BEE E2:|

